assets/images/item_3053.svg

<?xml version="1.0" standalone="no"?><!DOCTYPE svg PUBLIC "-//W3C//DTD SVG 1.1//EN" "http://www.w3.org/Graphics/SVG/1.1/DTD/svg11.dtd"><svg xmlns="http://www.w3.org/2000/svg" version="1.1" width="76px" height="160.2px" viewBox="0 -12 76 160.2" style="top:-12px"><desc>3</desc><defs/><g id="Polygon10600"><path d="m33.8 34.8c0-5-4.6-7.9-9.9-7.9c-5.2 0-11 2.8-14 8.7L6.8 33c3-9.8 11.8-15.7 22.5-15.7c9.6 0 18 4.7 18 13.1c0 7-5.8 14.2-16.3 16.9c11.8 1.7 19.7 8.3 19.7 18.6c0 13-12.5 20-26.5 20c-6.7 0-13.9-1.7-20-4.8c.03-.01 3.6-12.8 3.6-12.8h5.4c0 9.3 5.9 13.3 11.7 13.3c6.2 0 12.5-4.6 12.5-12.5c0-7.8-6.1-14-19.7-14v-7.7c10.3-.6 16.1-7 16.1-12.6z" stroke="none" fill="#000"/></g></svg>

<?xml version="1.0" standalone="no"?><!DOCTYPE svg PUBLIC "-//W3C//DTD SVG 1.1//EN" "http://www.w3.org/Graphics/SVG/1.1/DTD/svg11.dtd"><svg xmlns="http://www.w3.org/2000/svg" version="1.1" width="76px" height="160.2px" viewBox="0 -12 76 160.2" style="top:-12px">  <desc>3</desc>  <defs/>  <g id="Polygon10600">    <path d="M 33.8 34.8 C 33.8 29.8 29.2 26.9 23.9 26.9 C 18.7 26.9 12.9 29.7 9.9 35.6 C 9.9 35.6 6.8 33 6.8 33 C 9.8 23.2 18.6 17.3 29.3 17.3 C 38.9 17.3 47.3 22 47.3 30.4 C 47.3 37.4 41.5 44.6 31 47.3 C 42.8 49 50.7 55.6 50.7 65.9 C 50.7 78.9 38.2 85.9 24.2 85.9 C 17.5 85.9 10.3 84.2 4.2 81.1 C 4.23 81.09 7.8 68.3 7.8 68.3 C 7.8 68.3 13.23 68.31 13.2 68.3 C 13.2 77.6 19.1 81.6 24.9 81.6 C 31.1 81.6 37.4 77 37.4 69.1 C 37.4 61.3 31.3 55.1 17.7 55.1 C 17.7 55.1 17.7 47.4 17.7 47.4 C 28 46.8 33.8 40.4 33.8 34.8 Z " stroke="none" fill="#000"/>  </g></svg>
